src/assets/outline/Smallcaps.svg

<svg width="24" height="24" viewBox="0 0 24 24"  xmlns="http://www.w3.org/2000/svg">
<path d="M18.6102 6.67995C18.2002 6.67995 17.8602 6.33995 17.8602 5.92995V4.41995C17.8602 3.81995 17.3702 3.31995 16.7602 3.31995H3.83023C3.23023 3.31995 2.73023 3.80995 2.73023 4.41995V5.92995C2.73023 6.33995 2.39023 6.67995 1.98023 6.67995C1.57023 6.67995 1.24023 6.33995 1.24023 5.92995V4.41995C1.24023 2.98995 2.41023 1.81995 3.84023 1.81995H16.7602C18.1902 1.81995 19.3602 2.97995 19.3602 4.41995V5.92995C19.3602 6.33995 19.0202 6.67995 18.6102 6.67995Z" />
<path d="M10.2998 18.8499C9.8898 18.8499 9.5498 18.5099 9.5498 18.0999V3.31995C9.5498 2.90995 9.8898 2.56995 10.2998 2.56995C10.7098 2.56995 11.0498 2.90995 11.0498 3.31995V18.0999C11.0498 18.5199 10.7098 18.8499 10.2998 18.8499Z" />
<path d="M12.4799 18.85H6.8999C6.4899 18.85 6.1499 18.51 6.1499 18.1C6.1499 17.69 6.4899 17.35 6.8999 17.35H12.4799C12.8899 17.35 13.2299 17.69 13.2299 18.1C13.2299 18.51 12.8899 18.85 12.4799 18.85Z" />
<path d="M22.0102 13.2C21.6002 13.2 21.2602 12.86 21.2602 12.45V11.65C21.2602 11.34 21.0002 11.08 20.6902 11.08H13.6802C13.2702 11.08 12.9302 10.74 12.9302 10.33C12.9302 9.91996 13.2702 9.57996 13.6802 9.57996H20.6902C21.8302 9.57996 22.7602 10.51 22.7602 11.65V12.45C22.7602 12.87 22.4302 13.2 22.0102 13.2Z" />
<path d="M16.0801 22.18C15.6701 22.18 15.3301 21.84 15.3301 21.43V10.87C15.3301 10.46 15.6701 10.12 16.0801 10.12C16.4901 10.12 16.8301 10.46 16.8301 10.87V21.43C16.8301 21.84 16.4901 22.18 16.0801 22.18Z" />
<path d="M18.2199 22.1801H13.9399C13.5299 22.1801 13.1899 21.8401 13.1899 21.4301C13.1899 21.0201 13.5299 20.6801 13.9399 20.6801H18.2199C18.6299 20.6801 18.9699 21.0201 18.9699 21.4301C18.9699 21.8401 18.6299 22.1801 18.2199 22.1801Z" />
</svg>

<?xml version="1.0" encoding="UTF-8"?>
<svg width="24" height="24" viewBox="0 0 24 24" xmlns="http://www.w3.org/2000/svg">
 <path d="m18.61 6.68c-0.41 0-0.75-0.34-0.75-0.75v-1.51c0-0.6-0.49-1.1-1.1-1.1h-12.93c-0.6 0-1.1 0.49-1.1 1.1v1.51c0 0.41-0.34 0.75-0.75 0.75s-0.74-0.34-0.74-0.75v-1.51c0-1.43 1.17-2.6 2.6-2.6h12.92c1.43 0 2.6 1.16 2.6 2.6v1.51c0 0.41-0.34 0.75-0.75 0.75z"/>
 <path d="m10.3 18.85c-0.41 0-0.75-0.34-0.75-0.75v-14.78c0-0.41 0.34-0.75 0.75-0.75s0.75 0.34 0.75 0.75v14.78c0 0.42-0.34 0.75-0.75 0.75z"/>
 <path d="m12.48 18.85h-5.58c-0.41 0-0.75-0.34-0.75-0.75s0.34-0.75 0.75-0.75h5.58c0.41 0 0.75 0.34 0.75 0.75s-0.34 0.75-0.75 0.75z"/>
 <path d="m22.01 13.2c-0.41 0-0.75-0.34-0.75-0.75v-0.8c0-0.31-0.26-0.57-0.57-0.57h-7.01c-0.41 0-0.75-0.34-0.75-0.75 0-0.41004 0.34-0.75004 0.75-0.75004h7.01c1.14 0 2.07 0.93004 2.07 2.07v0.8c0 0.42-0.33 0.75-0.75 0.75z"/>
 <path d="m16.08 22.18c-0.41 0-0.75-0.34-0.75-0.75v-10.56c0-0.41 0.34-0.75 0.75-0.75s0.75 0.34 0.75 0.75v10.56c0 0.41-0.34 0.75-0.75 0.75z"/>
 <path d="m18.22 22.18h-4.28c-0.41 0-0.75-0.34-0.75-0.75s0.34-0.75 0.75-0.75h4.28c0.41 0 0.75 0.34 0.75 0.75s-0.34 0.75-0.75 0.75z"/>
</svg>
